public/assets/images/career/10.svg

<svg width="20" height="20" viewBox="0 0 20 20" fill="none" xmlns="http://www.w3.org/2000/svg">
<g clip-path="url(#clip0_1418_21245)">
<path fill-rule="evenodd" clip-rule="evenodd" d="M14.25 17.25V15.75H18.75V5.25H8.25V9.75H6.75V5.25C6.75 4.85218 6.90804 4.47064 7.18934 4.18934C7.47064 3.90804 7.85218 3.75 8.25 3.75H18.75C19.1478 3.75 19.5294 3.90804 19.8107 4.18934C20.092 4.47064 20.25 4.85218 20.25 5.25V15.75C20.25 16.1478 20.092 16.5294 19.8107 16.8107C19.5294 17.092 19.1478 17.25 18.75 17.25H14.25ZM5.25 12.75H9.75C10.1478 12.75 10.5294 12.908 10.8107 13.1893C11.092 13.4706 11.25 13.8522 11.25 14.25V18.75C11.25 19.1478 11.092 19.5294 10.8107 19.8107C10.5294 20.092 10.1478 20.25 9.75 20.25H5.25C4.85218 20.25 4.47064 20.092 4.18934 19.8107C3.90804 19.5294 3.75 19.1478 3.75 18.75V14.25C3.75 13.8522 3.90804 13.4706 4.18934 13.1893C4.47064 12.908 4.85218 12.75 5.25 12.75ZM5.25 14.25V18.75H9.75V14.25H5.25Z" fill="#050D20"/>
</g>
<defs>
<clipPath id="clip0_1418_21245">
<rect width="20" height="20" fill="white"/>
</clipPath>
</defs>
</svg>

<svg xmlns="http://www.w3.org/2000/svg" width="20" height="20" fill="none" viewBox="0 0 20 20"><g clip-path="url(#a)"><path fill="#050d20" fill-rule="evenodd" d="M14.25 17.25v-1.5h4.5V5.25H8.25v4.5h-1.5v-4.5a1.5 1.5 0 0 1 1.5-1.5h10.5a1.5 1.5 0 0 1 1.5 1.5v10.5a1.5 1.5 0 0 1-1.5 1.5zm-9-4.5h4.5a1.5 1.5 0 0 1 1.5 1.5v4.5a1.5 1.5 0 0 1-1.5 1.5h-4.5a1.5 1.5 0 0 1-1.5-1.5v-4.5a1.5 1.5 0 0 1 1.5-1.5m0 1.5v4.5h4.5v-4.5z" clip-rule="evenodd"/></g><defs><clipPath id="a"><path fill="#fff" d="M0 0h20v20H0z"/></clipPath></defs></svg>
